svg/logo.svg

<?xml version="1.0" encoding="utf-8"?>
<!-- Generator: Adobe Illustrator 19.2.0, SVG Export Plug-In . SVG Version: 6.00 Build 0)  -->
<svg version="1.1" xmlns="http://www.w3.org/2000/svg" xmlns:xlink="http://www.w3.org/1999/xlink" x="0px" y="0px"
	 viewBox="0 0 500 500" style="enable-background:new 0 0 500 500;" xml:space="preserve">
<g id="logo">
	<g>
		<path d="M250.38,15.86c-2.75,0-5.48,0.69-7.9,2L40.95,126.63c-5.5,2.97-8.91,8.57-8.91,14.62v217.5c0,6.05,3.42,11.66,8.92,14.63
			l201.42,108.73c4.82,2.61,11.03,2.62,15.88,0l201.15-108.73c5.27-2.85,8.54-8.46,8.54-14.63v-217.5c0-6.17-3.27-11.78-8.53-14.62
			L258.19,17.86C255.73,16.53,253.11,15.86,250.38,15.86z"/>
		<path d="M250.35,500.01c-3.64,0-7.24-0.9-10.41-2.61L28.59,383.3c-7.18-3.89-11.64-11.24-11.64-19.19V135.9
			c0-7.95,4.46-15.3,11.64-19.18L240.04,2.59c6.34-3.43,14.19-3.49,20.63,0l211.15,114.13c6.93,3.75,11.24,11.1,11.24,19.18v228.21
			c0,8.09-4.31,15.44-11.25,19.19L260.74,497.39C257.57,499.11,253.98,500.01,250.35,500.01z M250.4,4.32
			c-2.88,0-5.75,0.73-8.29,2.1L30.65,120.56c-5.77,3.11-9.35,9-9.35,15.34v228.21c0,6.35,3.59,12.23,9.36,15.35l211.35,114.09
			c5.06,2.73,11.57,2.75,16.66,0l211.07-114.09c5.53-2.99,8.96-8.87,8.96-15.35V135.9c0-6.48-3.43-12.36-8.95-15.34L258.59,6.42
			C256.02,5.03,253.26,4.32,250.4,4.32z"/>
	</g>
</g>
</svg>

<svg  xmlns="http://www.w3.org/2000/svg" xmlns:xlink="http://www.w3.org/1999/xlink" style="display: none">
  <symbol id='logo' viewbox='-16.3 0 500 500'>
  <path d='M250.4,15.9a16.7,16.7,0,0,0-7.9,2L41,126.6A16.7,16.7,0,0,0,32,141.3V358.8A16.7,16.7,0,0,0,41,373.4L242.4,482.1a17.1,17.1,0,0,0,15.9,0L459.4,373.4a16.5,16.5,0,0,0,8.5-14.6V141.3a16.5,16.5,0,0,0-8.5-14.6L258.2,17.9A16.2,16.2,0,0,0,250.4,15.9Z'
    id='logo_fill'
    transform='translate(-16.9 0)'>
  </path>
  <path d='M250.4,500a22,22,0,0,1-10.4-2.6L28.6,383.3a21.9,21.9,0,0,1-11.6-19.2V135.9a21.9,21.9,0,0,1,11.6-19.2L240,2.6a21.8,21.8,0,0,1,20.6,0L471.8,116.7a21.7,21.7,0,0,1,11.2,19.2V364.1a21.7,21.7,0,0,1-11.3,19.2L260.7,497.4A21.9,21.9,0,0,1,250.4,500Zm0-495.7a17.5,17.5,0,0,0-8.3,2.1L30.7,120.6a17.5,17.5,0,0,0-9.4,15.3V364.1a17.6,17.6,0,0,0,9.4,15.4L242,493.6a17.9,17.9,0,0,0,16.7,0L469.7,379.5a17.4,17.4,0,0,0,9-15.4V135.9a17.3,17.3,0,0,0-9-15.3L258.6,6.4A17,17,0,0,0,250.4,4.3Z'
    id='logo_border'
    transform='translate(-16.9 0)'>
  </path>
</symbol>
</svg>
